 startshape start
CF::Background = [b -.5]
shape start {
	loop 18 [r 20]
		splot[x 1.1]
	start[x 10 s .8 r 40]
}

shape splot {
	egg[r 90 a -.5]
	rness = 50
	splot[y .5 s .95 r rand(-rness,rness)]
}

shape egg {
	CIRCLE[s 1.09 2.12 sat .7 b 1]
	loop 10 [y .2 s .8 b .2 h 2] {
		off[s .1 sat .8 b .1]
	}
	loop 10 [y -.2 s .8 b .2 h -2] {
		off[s .1 r 180 sat .8 b .1]
	}
}

shape off {
	transform[s 4]
	SQUARE[s .8 1 r 45]
	off[x 2 y 1 r 10 s .7 .9]
}