CF::Background = [hue 0 sat 1 b -10.8]
CF::Impure = 1
startshape start

shape start {
	//SQUARE[s 2 b .5]
	goe[r -45]
	goe[[r -45 y 1 x 1]]
}

shape goe
rule {
	SQUARE[s .5 -2 r -135]
	goe[s .5 x -.5 y -.5 b .1 sat 1]
	goe[s .5 x .5 y -.5 a -.5]
	goe[s .5 x -.5 y .5 a -.5]
	goe[s .5 x .5 y .5 b .1 sat 1 hue 180]
}