startshape bushTrunk
CF::Background = [b -1]

shape bushTrunk
rule {
	bark[]
	bushTrunk[y .1 s .999 r rand(-1,1) hue rand(-1.1,1)]
}
rule .01 {
	bushTrunk[r 10 s .8]
	bushTrunk[r -10 s .8]
}
shape bark {
	//CIRCLE[sat .65 b .7 hue 60]
	if(!randint(5)) {	
		SQUARE[b .1 sat .2 r rand(40, 50)]
	}
	wibblewobble[x rand(-.5, .5)]
}
shape wibblewobble {
	CIRCLE[s .1 sat .65 b .6 hue 60 ]
	wibblewobble[y .1 s rand(.9,1)]
}