CF::Impure = 1
startshape dendrite(.001)

spread = 25
shape dendrite(number splitChance)
rule {
	CIRCLE[sat .7 b .7 hue 0]
	if(rand(0, 1) < splitChance) {
		dendrite(splitChance * 1.5)[r rand(-spread,spread) s .8]
		dendrite(splitChance * 1.5)[r rand(-spread,spread) s .8]
		if(rand(1) < .5)
			dendrite(splitChance)[y .1 s .999 sat rand(-1,1) hue rand(-1,1)]
	} else {
		dendrite(splitChance)[y .1 s .999 sat rand(-1,1) hue rand(-1,1)]
	}
}