startshape feather
CF::Impure = 1

shape feather {
	rib(0)[]
}

shape rib(number life)	{
	SQUARE[]
	if (life < 250)
		rib(life+1)[y .7 s .995 r rand(-.1)]
	if (life > 30) {
		floof[s (.4+life/450) r (90 + -90*(life/250))]
		floof[s (.4+life/450) r (90 + 90*(life/250)) flip 180]
	}
}
shape floof {
	SQUARE[]
	floof[y .7 s .99 r rand(.3)]
}